src/app/icon.svg

<svg width="139" height="139" viewBox="0 0 139 139" fill="none" xmlns="http://www.w3.org/2000/svg">
<rect width="138.462" height="138.462" rx="34.6154" fill="url(#paint0_linear_231_4528)"/>
<path d="M73.5332 29.5C79.2377 29.5 84.5304 30.496 89.4102 32.4893C94.2898 34.4825 98.5508 37.2668 102.193 40.8408C105.836 44.3461 108.654 48.5042 110.647 53.3154C112.709 58.1266 113.74 63.3851 113.74 69.0898C113.74 74.7256 112.709 79.9835 110.647 84.8633C108.586 89.6745 105.732 93.8673 102.09 97.4414C98.4473 101.015 94.1863 103.799 89.3066 105.792C84.4956 107.785 79.2377 108.782 73.5332 108.782C67.8974 108.782 62.6395 107.785 57.7598 105.792C55.4941 104.867 53.3633 103.768 51.3643 102.502C55.3841 100.013 59.2969 97.0026 62.8809 93.8848C62.9949 93.9362 63.1086 93.989 63.2236 94.0391C66.3852 95.345 69.8218 95.998 73.5332 95.998C77.3132 95.998 80.7839 95.3449 83.9453 94.0391C87.1068 92.6644 89.8566 90.7747 92.1934 88.3691C94.5989 85.9635 96.4201 83.1107 97.6572 79.8115C98.963 76.5125 99.6162 72.9386 99.6162 69.0898C99.6162 65.241 98.963 61.701 97.6572 58.4707C96.4201 55.1716 94.5989 52.3187 92.1934 49.9131C89.8566 47.4387 87.1069 45.5491 83.9453 44.2432C80.7838 42.9373 77.3132 42.2842 73.5332 42.2842C69.8218 42.2842 66.3852 42.9373 63.2236 44.2432C60.0622 45.5491 57.2785 47.4388 54.873 49.9131C52.5363 52.3187 50.715 55.1716 49.4092 58.4707C48.1034 61.701 47.4502 65.241 47.4502 69.0898C47.4502 72.9386 48.1034 76.5125 49.4092 79.8115C50.715 83.1107 52.5362 85.9635 54.873 88.3691C55.5317 89.0278 56.2202 89.6461 56.9355 90.2275C52.9387 92.9861 49.1252 95.4374 46.417 97.1006L44.8857 97.3496C41.2869 93.7953 38.4635 89.634 36.4189 84.8633C34.4259 79.9835 33.4297 74.7256 33.4297 69.0898C33.4297 63.3852 34.4258 58.1266 36.4189 53.3154C38.4121 48.5042 41.2304 44.3114 44.873 40.7373C48.5157 37.1633 52.7775 34.4137 57.6572 32.4893C62.5369 30.4962 67.8289 29.5 73.5332 29.5Z" fill="url(#paint1_linear_231_4528)"/>
<path d="M28.8556 71.4141C28.8556 71.4141 14.1558 86.9496 24.3957 97.8583C24.3957 97.8583 31.1664 106.782 51.9757 94.8843C51.9757 94.8843 71.7879 83.1297 78.9002 72.6032C78.9002 72.6032 52.5101 88.6106 47.8575 89.7597C47.8575 89.7597 33.3417 95.1938 28.1197 91.3277C28.1197 91.3277 23.4301 88.21 24.7118 81.732C25.3143 78.6831 27.3615 74.8716 28.8515 71.4181L28.8556 71.4141Z" fill="url(#paint2_linear_231_4528)"/>
<defs>
<linearGradient id="paint0_linear_231_4528" x1="69.2308" y1="138.462" x2="69.2308" y2="0" gradientUnits="userSpaceOnUse">
<stop stop-color="#171A26"/>
<stop offset="1" stop-color="#13213B"/>
</linearGradient>
<linearGradient id="paint1_linear_231_4528" x1="185.089" y1="31.5105" x2="185.089" y2="96.9659" gradientUnits="userSpaceOnUse">
<stop stop-color="#F7FBFF"/>
<stop offset="1" stop-color="#DDE7F2"/>
</linearGradient>
<linearGradient id="paint2_linear_231_4528" x1="44.1692" y1="60.8651" x2="44.1692" y2="97.6638" gradientUnits="userSpaceOnUse">
<stop stop-color="#40E8FF"/>
<stop offset="1" stop-color="#00B6CF"/>
</linearGradient>
</defs>
</svg>

<svg xmlns="http://www.w3.org/2000/svg" width="139" height="139" fill="none" viewBox="0 0 139 139"><rect width="138.462" height="138.462" fill="url(#a)" rx="34.615"/><path fill="url(#b)" d="M73.533 29.5q8.557 0 15.877 2.99t12.783 8.35q5.465 5.259 8.454 12.475 3.093 7.218 3.093 15.775 0 8.454-3.093 15.773-3.093 7.217-8.557 12.578t-12.783 8.351q-7.217 2.99-15.774 2.99-8.454 0-15.773-2.99a40.6 40.6 0 0 1-6.396-3.29c4.02-2.489 7.933-5.5 11.517-8.617q.17.078.343.154 4.742 1.959 10.31 1.959 5.67 0 10.411-1.959 4.744-2.062 8.248-5.67 3.609-3.609 5.464-8.558 1.96-4.948 1.96-10.721t-1.96-10.62q-1.855-4.948-5.464-8.557a23.6 23.6 0 0 0-8.248-5.67q-4.742-1.959-10.412-1.959-5.567 0-10.31 1.96a24.7 24.7 0 0 0-8.35 5.67q-3.505 3.608-5.464 8.557-1.959 4.845-1.959 10.619 0 5.773 1.96 10.721 1.957 4.95 5.463 8.558a27 27 0 0 0 2.063 1.859A246 246 0 0 1 46.417 97.1l-1.531.249q-5.4-5.332-8.467-12.487-2.99-7.32-2.99-15.773 0-8.557 2.99-15.775 2.99-7.216 8.454-12.578 5.465-5.36 12.784-8.248 7.32-2.99 15.876-2.989"/><path fill="url(#c)" d="M28.856 71.414s-14.7 15.536-4.46 26.444c0 0 6.77 8.924 27.58-2.974 0 0 19.812-11.754 26.924-22.28 0 0-26.39 16.007-31.043 17.156 0 0-14.515 5.434-19.737 1.568 0 0-4.69-3.118-3.408-9.596.602-3.049 2.65-6.86 4.14-10.314z"/><defs><linearGradient id="a" x1="69.231" x2="69.231" y1="138.462" y2="0" gradientUnits="userSpaceOnUse"><stop stop-color="#171a26"/><stop offset="1" stop-color="#13213b"/></linearGradient><linearGradient id="b" x1="185.089" x2="185.089" y1="31.511" y2="96.966" gradientUnits="userSpaceOnUse"><stop stop-color="#f7fbff"/><stop offset="1" stop-color="#dde7f2"/></linearGradient><linearGradient id="c" x1="44.169" x2="44.169" y1="60.865" y2="97.664" gradientUnits="userSpaceOnUse"><stop stop-color="#40e8ff"/><stop offset="1" stop-color="#00b6cf"/></linearGradient></defs></svg>
